X:1
T:Title
%%score { ( 1 3 4 ) | ( 2 5 ) }
L:1/8
M:4/4
K:Eb
V:1 treble nm="Grand Piano"
V:3 treble 
V:4 treble 
V:2 bass 
V:5 bass 
V:1
 z4 z2[Q:1/4=92] E>F | G>G G>c B>G E>F |[M:3/4] G>G G>E [DF]2 |[M:1/4] E>F | %4
[M:4/4] G>G G>c B>G [B,E]>[CEF] |[M:3/4] [B,EG]>[B,FA] [A,DF]>[B,DG] [G,E]2 | %6
[M:1/4] [B,GB]>[B,GB] |[M:4/4] [Ge]>d e>c B>A G>[GB] |[M:3/4] c>c c>e B2 |[M:1/4] [AB]>[AB] | %10
[M:4/4] [Ge]>d e>c B>G [B,E]>[CEF] |[M:7/8] [B,EG]>[B,FA][A,DF]>[B,DG] [G,E]3 |[M:1/4] G>A | %13
[M:4/4] [GB]6 z2 |[M:3/4] [DF]6[K:bass] |[M:1/4][K:treble] F>G |[M:4/4] [FA]6 z2 | [Ge]6 z2 | %18
[M:9/8] [Ge]>[Ge][Ge]- [Ge]/[Ge]/ d2- dd>d |[M:4/4] c>c c>c B2 A2 | %20
 G2 G2 [A,DF]>[A,DF] [A,DF]>[B,DG] |[M:3/4] [G,E]6 |] %22
V:2
 z4 z2 [E,G,]>[E,A,E] | [E,B,E]>[E,B,E] [E,B,E]>[E,A,E] [E,G,E]>[E,B,E] [E,G,]>[E,A,E] | %2
[M:3/4] [E,B,E]>[E,B,E] [E,B,E]>[E,G,] [B,,B,]2 |[M:1/4] [E,G,]>[E,A,E] | %4
[M:4/4] [E,B,E]>[E,B,E] [E,B,E]>[E,A,E] [E,G,E]>[E,B,E] G,,>A,, |[M:3/4] B,,>B,, B,,>B,, E,2 | %6
[M:1/4] E,>E, |[M:4/4] [E,B,]>[F,B,F] [G,B,E]>[A,E] [G,B,E]>[F,B,D] [E,B,E]>[E,E] | %8
[M:3/4][K:treble] [A,EA]>[A,EA] [A,EA]>[A,CA] [G,E]2 |[M:1/4][K:bass] [F,B,]>[F,B,] | %10
[M:4/4] [E,B,]>[F,B,F] [G,B,E]>[A,E] [G,B,E]>[E,B,E] G,,>A,, |[M:7/8] B,,>B,,B,,>B,, E,3 | %12
[M:1/4][K:treble] E>F |[M:4/4][K:bass] E,>E, E,>E, z z/ A/ E,>E, |[M:3/4] B,,>B,, D,>F, B,2 | %15
[M:1/4] D>E |[M:4/4] B,,>B,, B,,>B,, z z/ A/ [B,,B,]>[B,,B,] | [E,B,]>E, E,>E, E,2 E,>E, | %18
[M:9/8] [E,B,]>[E,B,][E,B,]- [E,B,]/[E,B,]/[K:treble] [G,=B,F]2- [G,B,F][G,B,F]>[G,B,F] | %19
[M:4/4] [A,CE]>[K:bass][A,E] [A,E]>[A,E] [G,B,E]2 [F,B,D]2 | [E,B,E]2 [E,B,E]2 B,,>B,, B,,>B,, | %21
[M:3/4] E,6 |] %22
V:3
 x8 | x8 |[M:3/4] x6 |[M:1/4] x2 |[M:4/4] x8 |[M:3/4] x6 |[M:1/4] x2 |[M:4/4] x8 |[M:3/4] x6 | %9
[M:1/4] x2 |[M:4/4] x8 |[M:7/8] x7 |[M:1/4] x2 |[M:4/4] E>E E>E z z/ c/ [B,GB]>[B,EG] | %14
[M:3/4] B,>[K:bass]B, B,>B, z2 |[M:1/4][K:treble] x2 |[M:4/4] B,>B, B,>B, z z/ d/ [Ac]>[AB] | %17
 z z/ B,/ B,>B, B,2 [B,GB]>[B,GB] |[M:9/8] x9 |[M:4/4] x8 | x8 |[M:3/4] x6 |] %22
V:4
 x8 | x8 |[M:3/4] x6 |[M:1/4] x2 |[M:4/4] x8 |[M:3/4] x6 |[M:1/4] x2 |[M:4/4] x8 |[M:3/4] x6 | %9
[M:1/4] x2 |[M:4/4] x8 |[M:7/8] x7 |[M:1/4] x2 |[M:4/4] z4 E2 z2 |[M:3/4] x3/2[K:bass] x9/2 | %15
[M:1/4][K:treble] x2 |[M:4/4] z4 B,2 z2 | x8 |[M:9/8] x9 |[M:4/4] x8 | x8 |[M:3/4] x6 |] %22
V:5
 x8 | x8 |[M:3/4] x6 |[M:1/4] x2 |[M:4/4] x8 |[M:3/4] x6 |[M:1/4] x2 |[M:4/4] x8 | %8
[M:3/4][K:treble] x6 |[M:1/4][K:bass] x2 |[M:4/4] x8 |[M:7/8] x7 |[M:1/4][K:treble] x2 | %13
[M:4/4][K:bass] z4 E,2 z2 |[M:3/4] x6 |[M:1/4] x2 |[M:4/4] z4 B,,2 z2 | x8 | %18
[M:9/8] x4[K:treble] x5 |[M:4/4] x3/2[K:bass] x13/2 | x8 |[M:3/4] x6 |] %22

